src/assets/svg/wallet.svg

<svg width="34" height="28" viewBox="0 0 34 28" fill="none" xmlns="http://www.w3.org/2000/svg">
<path fill-rule="evenodd" clip-rule="evenodd" d="M30.5599 8.00667C30.4692 8.00133 30.3727 7.9992 30.2703 8.00027H26.2303C22.9215 8.00027 20.0911 10.6051 20.0911 14.0003C20.0911 17.3955 22.9231 20.0003 26.2303 20.0003H30.2703C30.3727 20.0013 30.4697 19.9992 30.5615 19.9939C31.2415 19.9529 31.8834 19.666 32.3677 19.1868C32.8519 18.7076 33.1454 18.0686 33.1935 17.3891C33.1999 17.2931 33.1999 17.1891 33.1999 17.0931V10.9075C33.1999 10.8115 33.1999 10.7075 33.1935 10.6115C33.1454 9.93189 32.8519 9.29296 32.3677 8.81373C31.8834 8.33451 31.2399 8.04767 30.5599 8.00667ZM25.8767 15.6003C26.7279 15.6003 27.4175 14.8835 27.4175 14.0003C27.4175 13.1171 26.7279 12.4003 25.8767 12.4003C25.0239 12.4003 24.3343 13.1171 24.3343 14.0003C24.3343 14.8835 25.0239 15.6003 25.8767 15.6003Z" fill="#141416"/>
<path fill-rule="evenodd" clip-rule="evenodd" d="M30.2688 22.4C30.3241 22.3978 30.3792 22.4086 30.4295 22.4317C30.4798 22.4547 30.524 22.4893 30.5585 22.5327C30.5929 22.576 30.6167 22.6269 30.6278 22.6811C30.6389 22.7353 30.637 22.7914 30.6224 22.8448C30.3024 23.984 29.792 24.9568 28.9744 25.7728C27.776 26.9728 26.2576 27.5024 24.3824 27.7552C22.5584 28 20.2304 28 17.2896 28H13.9104C10.9696 28 8.64 28 6.8176 27.7552C4.9424 27.5024 3.424 26.9712 2.2256 25.7744C1.0288 24.576 0.4976 23.0576 0.2448 21.1824C1.90735e-07 19.3584 0 17.0304 0 14.0896V13.9104C0 10.9696 1.90735e-07 8.64 0.2448 6.816C0.4976 4.9408 1.0288 3.4224 2.2256 2.224C3.424 1.0272 4.9424 0.496 6.8176 0.2432C8.6416 -7.15256e-08 10.9696 0 13.9104 0H17.2896C20.2304 0 22.56 1.90735e-07 24.3824 0.2448C26.2576 0.4976 27.776 1.0288 28.9744 2.2256C29.792 3.0448 30.3024 4.016 30.6224 5.1552C30.637 5.20859 30.6389 5.26468 30.6278 5.31891C30.6167 5.37315 30.5929 5.42399 30.5585 5.46733C30.524 5.51066 30.4798 5.54526 30.4295 5.56831C30.3792 5.59137 30.3241 5.60222 30.2688 5.6H26.2304C21.6912 5.6 17.6912 9.184 17.6912 14C17.6912 18.816 21.6912 22.4 26.2304 22.4H30.2688ZM6 6.4C5.68174 6.4 5.37651 6.52643 5.15147 6.75147C4.92643 6.97652 4.8 7.28174 4.8 7.6C4.8 7.91826 4.92643 8.22348 5.15147 8.44853C5.37651 8.67357 5.68174 8.8 6 8.8H12.4C12.7183 8.8 13.0235 8.67357 13.2485 8.44853C13.4736 8.22348 13.6 7.91826 13.6 7.6C13.6 7.28174 13.4736 6.97652 13.2485 6.75147C13.0235 6.52643 12.7183 6.4 12.4 6.4H6Z" fill="#141416"/>
</svg>

<svg xmlns="http://www.w3.org/2000/svg" width="34" height="28" fill="none"><path fill="#141416" fill-rule="evenodd" d="M30.56 8.007A4 4 0 0 0 30.27 8h-4.04c-3.308 0-6.139 2.605-6.139 6s2.832 6 6.14 6h4.04q.153.002.29-.006a2.81 2.81 0 0 0 2.633-2.605c.006-.096.006-.2.006-.296v-6.185c0-.096 0-.2-.007-.296a2.81 2.81 0 0 0-2.633-2.605M25.877 15.6c.85 0 1.54-.716 1.54-1.6 0-.883-.69-1.6-1.54-1.6-.853 0-1.543.717-1.543 1.6s.69 1.6 1.543 1.6" clip-rule="evenodd"/><path fill="#141416" fill-rule="evenodd" d="M30.269 22.4a.352.352 0 0 1 .353.445c-.32 1.139-.83 2.112-1.648 2.928-1.198 1.2-2.716 1.73-4.592 1.982C22.558 28 20.23 28 17.29 28h-3.38c-2.94 0-5.27 0-7.092-.245-1.876-.253-3.394-.784-4.592-1.98-1.197-1.2-1.728-2.718-1.981-4.594C0 19.358 0 17.03 0 14.09v-.18c0-2.94 0-5.27.245-7.094.253-1.875.784-3.394 1.98-4.592C3.425 1.027 4.943.496 6.819.244 8.642 0 10.97 0 13.91 0h3.38c2.94 0 5.27 0 7.092.245 1.876.253 3.394.784 4.592 1.98.818.82 1.328 1.791 1.648 2.93a.353.353 0 0 1-.353.445H26.23c-4.539 0-8.539 3.584-8.539 8.4s4 8.4 8.54 8.4zM6 6.4a1.2 1.2 0 0 0 0 2.4h6.4a1.2 1.2 0 1 0 0-2.4z" clip-rule="evenodd"/></svg>
